Flat-ZOMG-dark/status/symbolic/network-disconnected-symbolic.svg

<svg xmlns="http://www.w3.org/2000/svg" width="16" height="16" version="1.1">
 <defs>
  <style id="current-color-scheme" type="text/css">
   .ColorScheme-Text { color:#dfdfdf; } .ColorScheme-Highlight { color:#367bf0; } .ColorScheme-NeutralText { color:#ffcc44; } .ColorScheme-PositiveText { color:#3db47e; } .ColorScheme-NegativeText { color:#dd4747; }
  </style>
 </defs>
 <path style="fill:currentColor" class="ColorScheme-Text" d="m 11,11 v 1 c 0,0.28 0.1,0.54 0.28,0.72 l 0.78,0.78 -0.78,0.78 C 11.1,14.47 11,14.73 11,15 v 1 h 1 c 0.28,0 0.54,-0.1 0.72,-0.28 l 0.78,-0.78 0.78,0.78 C 14.46,15.9 14.73,16 15,16 h 1 v -1 c 0,-0.27 -0.1,-0.53 -0.28,-0.72 L 14.94,13.5 15.72,12.72 C 15.9,12.54 16,12.28 16,12 v -1 h -1 c -0.27,0 -0.54,0.1 -0.72,0.28 L 13.5,12.07 12.72,11.28 C 12.54,11.1 12.28,11 12,11 Z"/>
 <path style="opacity:.35;fill:currentColor" class="ColorScheme-Text" d="M 10 0 L 10 2 L 7 2 L 7 7 L 10 7 L 10 9 L 15.5 4.5 L 10 0 z M 6 6 L 0.5 10.5 L 6 15 L 6 13 L 9 13 L 9 8 L 6 8 L 6 6 z"/>
</svg>

<svg xmlns="http://www.w3.org/2000/svg" width="16" height="16" version="1.1">
 <path style="fill:#5c616c" d="M 11,11 V 12 C 11,12.28 11.1,12.54 11.28,12.72 L 12.06,13.5 11.28,14.28 C 11.1,14.47 11,14.73 11,15 V 16 H 12 C 12.28,16 12.54,15.9 12.72,15.72 L 13.5,14.94 14.28,15.72 C 14.46,15.9 14.73,16 15,16 H 16 V 15 C 16,14.73 15.9,14.47 15.72,14.28 L 14.94,13.5 15.72,12.72 C 15.9,12.54 16,12.28 16,12 V 11 H 15 C 14.73,11 14.46,11.1 14.28,11.28 L 13.5,12.07 12.72,11.28 C 12.54,11.1 12.28,11 12,11 Z"/>
 <path style="fill:#5c616c;opacity:.35" d="M 10,9 15.5,4.5 10,0 C 10,0.01 10,1.34 10,2 9,2 8,2 7,2 7,3.67 7,5.34 7,7 8,7 9,7 10,7 10,7.67 10,9 10,9 Z"/>
 <path style="fill:#5c616c;opacity:.35" d="M 6,6 0.5,10.5 6,15 V 13 H 9 V 8 H 6 Z"/>
</svg>
